packages/icons/plugins/Approval.svg

<svg width="36" height="36" viewBox="6 0 36 36" xmlns="http://www.w3.org/2000/svg">
<g>
        <g filter="url(#filter0_bd_1560_130509)">
            <path
                d="M23.5574 36.6333C24.2264 36.8722 24.9529 36.8722 25.6219 36.6333C30.1803 35.0078 31.827 33.6799 31.827 33.6799C36.5644 30.3202 36.6061 25.9086 36.6061 25.9086V11.9856C36.6061 11.303 36.0721 10.7168 35.4158 10.6918C32.0537 10.5678 27.0986 7.99906 25.2848 6.99394C25.0705 6.87482 24.8312 6.8125 24.5882 6.8125C24.3452 6.8125 24.106 6.87482 23.8916 6.99394C22.0778 7.99604 17.1257 10.5678 13.7606 10.6918C13.1043 10.7166 12.5703 11.303 12.5703 11.9856V25.9086C12.5703 25.9086 12.612 30.32 17.3494 33.6799C17.3523 33.6799 18.999 35.0078 23.5574 36.6333Z"
                fill="#F7931E"
            />
            <path
                d="M23.7284 34.1106C24.2873 34.3092 24.8938 34.3092 25.4527 34.1106C29.2593 32.7549 30.6346 31.6443 30.6346 31.6443C34.5903 28.8399 34.6262 25.1544 34.6262 25.1544V13.682C34.6262 13.1112 34.1786 12.6242 33.6327 12.6024C30.8255 12.5 26.6878 10.3533 25.1753 9.51556C24.9963 9.41622 24.7965 9.36426 24.5936 9.36426C24.3907 9.36426 24.1909 9.41622 24.0119 9.51556C22.4994 10.3531 18.3617 12.5 15.5545 12.6024C15.0086 12.621 14.561 13.1112 14.561 13.682V25.1544C14.561 25.1544 14.5968 28.8399 18.5526 31.6443C18.5467 31.6443 19.9219 32.7549 23.7284 34.1106Z"
                fill="#FBB03B"
            />
            <path
                fill-rule="evenodd"
                clip-rule="evenodd"
                d="M25.9746 22.2565C26.9787 21.7267 27.6632 20.6723 27.6632 19.458C27.6632 17.7116 26.2474 16.2959 24.501 16.2959C22.7546 16.2959 21.3389 17.7116 21.3389 19.458C21.3389 20.6731 22.0241 21.728 23.0293 22.2576V26.7099C23.0293 27.5233 23.6886 28.1826 24.502 28.1826C25.3153 28.1826 25.9746 27.5232 25.9746 26.7099V22.2565Z"
                fill="white"
            />
        </g>
        <defs>
            <filter
                id="filter0_bd_1560_130509"
                x="-9.5"
                y="-12"
                width="68"
                height="70"
                filter-units="userSpaceOnUse"
                color-interpolation-filters="sRGB">
                <feFlood flood-opacity="0" result="BackgroundImageFix" />
                <feComposite in2="SourceAlpha" operator="in" result="effect1_backgroundBlur_1560_130509" />
                <feOffset dy="6" />
                <feComposite in2="hardAlpha" operator="out" />
                <feColorMatrix type="matrix" values="0 0 0 0 0.968627 0 0 0 0 0.576471 0 0 0 0 0.117647 0 0 0 0.2 0" />
                <feBlend
                    mode="normal"
                    in2="effect1_backgroundBlur_1560_130509"
                    result="effect2_dropShadow_1560_130509"
                />
                <feBlend mode="normal" in="SourceGraphic" in2="effect2_dropShadow_1560_130509" result="shape" />
            </filter>
        </defs>
    </g>
</svg>

<svg xmlns="http://www.w3.org/2000/svg" viewBox="6 0 36 36">
    <g filter="url(#Approval_svg__a)">
        <path fill="#F7931E" d="M23.557 36.633a3.063 3.063 0 0 0 2.065 0c4.558-1.625 6.205-2.953 6.205-2.953 4.737-3.36 4.78-7.771 4.78-7.771V11.986c0-.683-.535-1.27-1.191-1.294-3.362-.124-8.317-2.693-10.131-3.698a1.433 1.433 0 0 0-1.393 0c-1.814 1.002-6.766 3.574-10.131 3.698-.657.025-1.19.611-1.19 1.294v13.923s.041 4.411 4.778 7.77c.003 0 1.65 1.329 6.208 2.954Z"/>
        <path fill="#FBB03B" d="M23.728 34.11a2.57 2.57 0 0 0 1.725 0c3.806-1.355 5.182-2.466 5.182-2.466 3.955-2.804 3.991-6.49 3.991-6.49V13.682c0-.57-.447-1.058-.993-1.08-2.808-.102-6.945-2.249-8.458-3.086a1.198 1.198 0 0 0-1.163 0c-1.513.837-5.65 2.984-8.457 3.086-.546.019-.994.51-.994 1.08v11.472s.036 3.686 3.992 6.49c-.006 0 1.369 1.11 5.175 2.467Z"/>
        <path fill="#fff" fill-rule="evenodd" d="M25.975 22.256a3.162 3.162 0 1 0-2.946.002v4.452a1.473 1.473 0 1 0 2.946 0v-4.454Z" clip-rule="evenodd"/>
    </g>
    <defs>
        <filter id="Approval_svg__a" width="68" height="70" x="-9.5" y="-12" color-interpolation-filters="sRGB">
            <feFlood flood-opacity="0" result="BackgroundImageFix"/>
            <feComposite in2="SourceAlpha" operator="in" result="effect1_backgroundBlur_1560_130509"/>
            <feOffset dy="6"/>
            <feComposite in2="hardAlpha" operator="out"/>
            <feColorMatrix values="0 0 0 0 0.968627 0 0 0 0 0.576471 0 0 0 0 0.117647 0 0 0 0.2 0"/>
            <feBlend in2="effect1_backgroundBlur_1560_130509" result="effect2_dropShadow_1560_130509"/>
            <feBlend in="SourceGraphic" in2="effect2_dropShadow_1560_130509" result="shape"/>
        </filter>
    </defs>
</svg>
